T: Miss Johnstone's
M: 9/8
L: 1/8
K: Gmaj
|: B2 d c2 A GAG | D2 G B2 A G2 g | f2 d c2 A G2 D | F2 G A2 B cBA :||: B2 d c2 e d2 | B2 d g2 a bag |1 Bcd c2 e d2 f | a3 f2 a gfe :|2 b2 g agf g2 e | d2 A F2 A cBA ||
